svg/fluentui-system-icons/ic_fluent_phone_desktop_32_filled.svg

<svg width="32" height="32" viewBox="0 0 32 32" fill="none" xmlns="http://www.w3.org/2000/svg">
<path d="M5 5.25C5 3.45507 6.45507 2 8.25 2H26.75C28.5449 2 30 3.45508 30 5.25V17.75C30 19.5449 28.5449 21 26.75 21H22V24H24C24.5523 24 25 24.4477 25 25C25 25.5523 24.5523 26 24 26H14.5V24H20V21H14.5V15.25C14.5 12.6266 12.3734 10.5 9.75 10.5H5.25C5.16614 10.5 5.08279 10.5022 5 10.5065V5.25ZM2 15.25C2 13.4551 3.45507 12 5.25 12H9.75C11.5449 12 13 13.4551 13 15.25V26.75C13 28.5449 11.5449 30 9.75 30H5.25C3.45507 30 2 28.5449 2 26.75V15.25ZM6 26C6 26.5523 6.44772 27 7 27H8C8.55228 27 9 26.5523 9 26C9 25.4477 8.55228 25 8 25H7C6.44772 25 6 25.4477 6 26Z" fill="#212121"/>
</svg>

<svg xmlns="http://www.w3.org/2000/svg" width="32" height="32"><path d="M5 5.25A3.25 3.25 0 0 1 8.25 2h18.5A3.25 3.25 0 0 1 30 5.25v12.5A3.25 3.25 0 0 1 26.75 21H22v3h2a1 1 0 1 1 0 2h-9.5v-2H20v-3h-5.5v-5.75a4.75 4.75 0 0 0-4.75-4.75h-4.5a4.82 4.82 0 0 0-.25.007V5.25Zm-3 10A3.25 3.25 0 0 1 5.25 12h4.5A3.25 3.25 0 0 1 13 15.25v11.5A3.25 3.25 0 0 1 9.75 30h-4.5A3.25 3.25 0 0 1 2 26.75v-11.5ZM6 26a1 1 0 0 0 1 1h1a1 1 0 1 0 0-2H7a1 1 0 0 0-1 1Z"/></svg>
